X: 4857
T: Braes Of Auchtertyre, The
R: strathspey
M: 4/4
K: Amajor
A,2 A,D C<EE>F|A>Bc>B A>FE<A|F<FF>E F2 Ff|e<Ad>c B2 A2|
A,3 D C<EE>F|A>Bc>B c/B/A/G/ A>E|F>AE>A D>AC>A|c/B/A/G/ A>C B,2 A,>d||
c>de>f e>cAe|f/e/d/c/ B>d c>B A2|F<ff>e f2 fg/a/|e>Ad>c B2 A>d|
c2 e>f e2 Ae|f/e/d/c/ Bd c>BA>E|F>AE>A D>AC>A|c/B/A/G/ AC B,2 A,2||

